X: 2
T:Wild One (J-75)
M:6/8
L:1/8
R:jig
C:Mary Pantaleone
Z:abc by Debby Knight
K:Dmin
"Dm"DEF DGD|"F"ADc AGF|"Bb"DEF DGD|"Am"ADF EDC |
"Dm"DEF DGD|"F"ADc AGF|"Bb"dcA "Dm"GAF|1 "Am"EDC "Dm"D2A,:|	[2 "Am"EDC "Dm"D2A ||
|: "Dm"d2c A2c|"F"dcA cdc|"Bb"d2c A2G|"Am"FGE FED |
"Dm"d2c A2c|"F"dcA cdc|"Bb"dcA "Dm"cdF| "Am"EDC "Dm"D3:|

